X: 290
T:Silver Roses For June
% Nottingham Music Database
S:Chris Dewhurst 1983, via Phil Rowe
M:6/8
K:D
"A7"d2e |"D"fed A2d|"G"B2d "D"A2d|"G"Bcd "D"Ade|"E7"faf "A"e3|
"D"fed A2d|"G"B2d "D"A2d|"Em"B2d "A7"cde|"D"d3 ::
"D"ded |"A"cde A2e|"D"d2f A2f|"E7"e^de ef^g|
"A"a3 f2g|"D"aba fed|"G"c2B g2B|"D"A2d "A"cde|"D"d3 :|


